libs/icons/src/svg/question-circle.svg

<svg width="16" height="16" viewBox="0 0 16 16" fill="none" xmlns="http://www.w3.org/2000/svg">
<g clip-path="url(#clip0_4_245)">
<path d="M8 12.6667C8.36819 12.6667 8.66667 12.3682 8.66667 12C8.66667 11.6318 8.36819 11.3333 8 11.3333C7.63181 11.3333 7.33333 11.6318 7.33333 12C7.33333 12.3682 7.63181 12.6667 8 12.6667Z" fill="#202327"/>
<path d="M6.83816 4.98312C7.40114 4.73433 8.04431 4.62828 8.5883 4.67934C9.1486 4.73194 9.47614 4.93247 9.6129 5.15379C9.94371 5.68913 9.8133 6.43536 8.92971 7.18405C7.94175 8.02118 7.33336 8.66189 7.33336 9.66668C7.33336 10.0349 7.63183 10.3333 8.00002 10.3333C8.36821 10.3333 8.66669 10.0349 8.66669 9.66668C8.66669 9.33813 8.77962 9.05884 9.79167 8.2013C10.9081 7.25533 11.583 5.80555 10.7471 4.4529C10.3006 3.73021 9.48245 3.42408 8.71291 3.35184C7.92707 3.27808 7.05623 3.42902 6.29922 3.76357C5.96245 3.91239 5.81009 4.30604 5.95891 4.64282C6.10774 4.97959 6.50139 5.13195 6.83816 4.98312Z" fill="#202327"/>
<path fill-rule="evenodd" clip-rule="evenodd" d="M0 8C0 3.58172 3.58172 0 8 0C12.4183 0 16 3.58172 16 8C16 12.4183 12.4183 16 8 16C3.58172 16 0 12.4183 0 8ZM8 1.33333C4.3181 1.33333 1.33333 4.3181 1.33333 8C1.33333 11.6819 4.3181 14.6667 8 14.6667C11.6819 14.6667 14.6667 11.6819 14.6667 8C14.6667 4.3181 11.6819 1.33333 8 1.33333Z" fill="#202327"/>
</g>
<defs>
<clipPath id="clip0_4_245">
<rect width="16" height="16" fill="white"/>
</clipPath>
</defs>
</svg>

<svg xmlns="http://www.w3.org/2000/svg" viewBox="0 0 16 16" class="sageicon"><path d="M8 12.667a.667.667 0 1 0 0-1.334.667.667 0 0 0 0 1.334ZM6.838 4.983a3.651 3.651 0 0 1 1.75-.304c.56.053.888.253 1.025.475.33.535.2 1.281-.683 2.03-.988.837-1.597 1.478-1.597 2.483a.667.667 0 1 0 1.334 0c0-.329.113-.608 1.125-1.466 1.116-.946 1.791-2.395.955-3.748-.446-.723-1.265-1.029-2.034-1.101a4.982 4.982 0 0 0-2.414.412.667.667 0 1 0 .54 1.22Z"/><path fill-rule="evenodd" d="M0 8a8 8 0 1 1 16 0A8 8 0 0 1 0 8Zm8-6.667a6.667 6.667 0 1 0 0 13.334A6.667 6.667 0 0 0 8 1.333Z"/></svg>
